X: 23648
T: Limerick Redowa, The
R: mazurka
M: 3/4
K: Gmajor
|:B>d|g2 f2 B>d|e2 d2 B>d|c2 B2 (3ABd|(3efe d2 B>d|
g2 f2 B>d|(3efe d2 B>d|c2 B2 A2|G4:|
|:B>d|c2 B2 (3ABd|(3efe d2 B>d|c2 B2 (3ABd|e2 d2 B>d|
g2 f2 B>d|(3efe d2 B>d|c2 B2 A2|G4:|
|:(3ddd|d2 b3 a|g2 B2 d2|c2 A2 f2|g2 b2 (3ddd|
d2 b3 a|g2 B2 d2|c2 A2 f2|g4:|

